X: 502
T: Mud in your Eye
C: Bert Murray
R: jig
B: Bert Murray's "Bon Accord Collection" 1999 p.50
%
Z: 2011 John Chambers <jc:trillian.mit.edu>
M: 6/8
L: 1/8
K: G
uB |\
d>ed B>dB | G>BG (D2B,) | D>EF G>AB | c3 (c2A) |\
c>dc A>cA | F>AF uD2uD | D>FA d>^c=c | B3 (B2c) |
d>ed B>dB | G>BG (D2B,) | G,>B,D G>Bd | e3 (e2f) |\
g>fe d>cB | e>dc B>AG | F>ED c>BA | G3 G2 ||
B |\
d>ed B>GB | d>ed g>fe | d>BG D>GB | c3 (c2A) |\
c>ec A>cA | F>AF uD2uD | D>FA d>^c=c | B3 (B2c) |
d>ed B>GB | d>ed g>fe | d>Bd g>ag | e3 (e2f) |\
g>fe d>cB | e>dc B>AG | A>Bc d>ef | g3 g2 |]

%%sep 2 1 500

